assets/svg/icon_profile_privacy.svg

<svg width="24" height="24" viewBox="0 0 24 24" fill="none" xmlns="http://www.w3.org/2000/svg">
<path d="M10.3215 18.3869C8.60012 18.3869 7.34015 18.2781 6.41857 18.0916C5.49408 17.9045 4.954 17.6477 4.63092 17.3845C4.03516 16.8994 4 16.2575 4 15.1172C4 14.3749 4.5418 13.5696 5.70973 12.9126C6.85715 12.2672 8.48635 11.8474 10.3215 11.8474C10.9196 11.8474 11.4958 11.892 12.0406 11.9745M7.48774 6.41195C7.48774 4.84689 8.75646 3.57816 10.3215 3.57816C11.8866 3.57816 13.1553 4.84689 13.1553 6.41195C13.1553 7.97701 11.8866 9.24573 10.3215 9.24573C8.75646 9.24573 7.48774 7.97701 7.48774 6.41195Z" stroke="#0166FF" stroke-width="1.2905" stroke-linecap="round"/>
<path d="M13.5479 15.6407C13.5479 14.4371 13.5479 13.8353 13.6832 13.6329C13.8185 13.4304 14.3574 13.2367 15.4352 12.8494L15.6405 12.7755C16.2023 12.5736 16.4832 12.4727 16.7741 12.4727C17.065 12.4727 17.3459 12.5736 17.9077 12.7755L18.113 12.8494C19.1908 13.2367 19.7297 13.4304 19.865 13.6329C20.0004 13.8353 20.0004 14.4371 20.0004 15.6407C20.0004 15.8225 20.0004 16.0196 20.0004 16.2334C20.0004 18.3555 18.4808 19.3854 17.5274 19.8227C17.2688 19.9413 17.1395 20.0006 16.7741 20.0006C16.4087 20.0006 16.2794 19.9413 16.0208 19.8227C15.0674 19.3854 13.5479 18.3555 13.5479 16.2334C13.5479 16.0196 13.5479 15.8225 13.5479 15.6407Z" stroke="#0166FF" stroke-width="1.2905"/>
</svg>

<svg xmlns="http://www.w3.org/2000/svg" width="24" height="24" fill="none"><path stroke="#0166FF" stroke-linecap="round" stroke-width="1.29" d="M10.322 18.387c-1.722 0-2.982-.109-3.903-.295-.925-.187-1.465-.444-1.788-.707C4.035 16.899 4 16.256 4 15.116c0-.742.542-1.547 1.71-2.204 1.147-.646 2.776-1.066 4.612-1.066.598 0 1.174.045 1.719.128M7.488 6.412a2.834 2.834 0 1 1 5.667 0 2.834 2.834 0 0 1-5.667 0Z"/><path stroke="#0166FF" stroke-width="1.29" d="M13.548 15.64c0-1.203 0-1.805.135-2.007.136-.203.674-.396 1.752-.784l.205-.074c.562-.201.843-.302 1.134-.302s.572.1 1.134.302l.205.074c1.078.388 1.617.581 1.752.784.135.202.135.804.135 2.008v.592c0 2.122-1.52 3.152-2.473 3.59-.258.118-.387.178-.753.178-.365 0-.495-.06-.753-.178-.954-.438-2.473-1.468-2.473-3.59z"/></svg>
